src/assets/icons/female.svg

<?xml version="1.0" encoding="utf-8"?>
<!-- Generator: Adobe Illustrator 26.3.0, SVG Export Plug-In . SVG Version: 6.00 Build 0)  -->
<svg version="1.1" xmlns="http://www.w3.org/2000/svg" xmlns:xlink="http://www.w3.org/1999/xlink" x="0px" y="0px"
	 viewBox="0 0 50 50" style="enable-background:new 0 0 50 50;" xml:space="preserve">
<style type="text/css">
	.st0{fill:#FFFFFF;}
	.st1{fill:#522B79;}
	.st2{fill:#482670;}
</style>
<g id="Layer_3">
	<circle class="st0" cx="25" cy="25" r="24.95"/>
</g>
<g id="Layer_1">
	<path class="st1" d="M25,0.4c13.564,0,24.6,11.036,24.6,24.6S38.564,49.6,25,49.6S0.4,38.564,0.4,25S11.436,0.4,25,0.4 M25,0
		C11.193,0,0,11.193,0,25s11.193,25,25,25s25-11.193,25-25S38.807,0,25,0L25,0z"/>
</g>
<g id="Layer_4">
	<path class="st1" d="M38.1,26.95c-0.62-2.17-1.88-6.59-2.54-10.77c-0.06-0.39-0.19-1.19-0.51-2.23c-0.39-1.25-1.17-3.79-3.39-5.82
		c-0.86-0.8-3.5-2.94-7.37-2.84c-0.5,0.01-3.88,0.15-6.6,2.66c0,0-2.21,2.03-3.31,5.64c-0.15,0.49-0.33,1.13-0.33,1.13
		c-0.18,0.65-0.3,1.14-0.35,1.33c-1.44,5.75-2.16,8.62-2.57,10.33c-1.24,5.24-3.15,9.45-4.65,13.7c0.62,0.75,1.28,1.47,1.98,2.14
		c0.01,0.01,0.02,0.02,0.03,0.03c0.22,0.2,0.43,0.4,0.65,0.6c0.01,0.01,0.03,0.02,0.04,0.04c0.64,0.57,1.32,1.09,2.02,1.6l0.05,0.03
		c0.23,0.17,0.47,0.32,0.71,0.47l0.32,0.22l0.05,0.03c0.73,0.46,1.49,0.88,2.27,1.26c0.02,0.01,0.03,0.02,0.05,0.03
		c0.23,0.11,0.46,0.21,0.69,0.31c0.02,0.01,0.03,0.01,0.05,0.02c0.27,0.12,0.53,0.23,0.81,0.34l0.05,0.02
		c0.05,0.02,0.1,0.04,0.15,0.06l0.2,0.08l0.05,0.02c2.6,0.97,5.41,1.5,8.35,1.5c3.12,0,6.1-0.6,8.83-1.69
		c0.02-0.01,0.03-0.01,0.05-0.02c0.19-0.08,0.38-0.15,0.56-0.23c0.02-0.01,0.03-0.01,0.05-0.02c1.93-0.83,3.7-1.91,5.32-3.2
		c0.01-0.01,0.03-0.02,0.04-0.03c0.25-0.19,0.5-0.4,0.74-0.61c0.01-0.01,0.03-0.02,0.04-0.04c0.9-0.78,1.74-1.62,2.52-2.53
		C41.68,36.72,39.63,32.31,38.1,26.95z M25,19.83c-3.27,0-6.31-0.09-8.81-0.25c0.1-0.41,0.2-0.81,0.29-1.2
		c2.44-0.48,5.37-0.76,8.52-0.76c2.62,0,5.09,0.19,7.25,0.54c0.11,0.47,0.23,0.97,0.35,1.49C30.35,19.76,27.76,19.83,25,19.83z"/>
	<g id="Layer_7">
		<path class="st2" d="M29.88,9.79c0,0,2.194,5.816,4.51,18.66C34.39,28.45,34.525,17.551,29.88,9.79z"/>
		<path class="st2" d="M18.97,10.21c0,0-3.003,7.815-4.57,18.64C14.4,28.85,14.469,16.846,18.97,10.21z"/>
		<path class="st2" d="M11.31,33.15c0,0-1.283,4.248-2.083,9.505l-0.71-0.688C8.516,41.967,9.796,35.771,11.31,33.15z"/>
		<path class="st2" d="M11.226,44.291l1.117,0.756c0,0,1.37-15.364,2.381-18.279C14.724,26.768,13.188,30.258,11.226,44.291z"/>
		<path class="st2" d="M18.54,21.36c0,0-2.748,12.164-3.916,24.917l0.775,0.445C15.399,46.722,16.492,33.955,18.54,21.36z"/>
		<path class="st2" d="M16.84,43.83c0,0-0.366,2.299-0.198,3.334l-0.434-0.179C16.209,46.985,16.122,45.086,16.84,43.83z"/>
		<path class="st2" d="M30.95,21.38c0,0,2.435,19.034,2.838,25.342l0.702-0.178C34.49,46.544,33.929,34.731,30.95,21.38z"/>
		<path class="st2" d="M37.3,31.72c0,0,2.025,8.182,2.436,11.591l0.817-0.656C40.553,42.655,39.041,35.293,37.3,31.72z"/>
	</g>
</g>
</svg>

<svg width="50" height="50" viewBox="0 0 50 50" fill="none" xmlns="http://www.w3.org/2000/svg">
<g clip-path="url(#clip0_1_4)">
<path d="M25 49.95C38.7795 49.95 49.95 38.7795 49.95 25C49.95 11.2205 38.7795 0.0500031 25 0.0500031C11.2205 0.0500031 0.0500031 11.2205 0.0500031 25C0.0500031 38.7795 11.2205 49.95 25 49.95Z" fill="white"/>
<path d="M25 0.4C38.564 0.4 49.6 11.436 49.6 25C49.6 38.564 38.564 49.6 25 49.6C11.436 49.6 0.4 38.564 0.4 25C0.4 11.436 11.436 0.4 25 0.4ZM25 0C11.193 0 0 11.193 0 25C0 38.807 11.193 50 25 50C38.807 50 50 38.807 50 25C50 11.193 38.807 0 25 0Z" fill="#522B79"/>
<path d="M38.1 26.95C37.48 24.78 36.22 20.36 35.56 16.18C35.5 15.79 35.37 14.99 35.05 13.95C34.66 12.7 33.88 10.16 31.66 8.13C30.8 7.33 28.16 5.19 24.29 5.29C23.79 5.3 20.41 5.44 17.69 7.95C17.69 7.95 15.48 9.98 14.38 13.59C14.23 14.08 14.05 14.72 14.05 14.72C13.87 15.37 13.75 15.86 13.7 16.05C12.26 21.8 11.54 24.67 11.13 26.38C9.89 31.62 7.98 35.83 6.48 40.08C7.1 40.83 7.76 41.55 8.46 42.22C8.47 42.23 8.48 42.24 8.49 42.25C8.71 42.45 8.92 42.65 9.14 42.85C9.15 42.86 9.17 42.87 9.18 42.89C9.82 43.46 10.5 43.98 11.2 44.49L11.25 44.52C11.48 44.69 11.72 44.84 11.96 44.99L12.28 45.21L12.33 45.24C13.06 45.7 13.82 46.12 14.6 46.5C14.62 46.51 14.63 46.52 14.65 46.53C14.88 46.64 15.11 46.74 15.34 46.84C15.36 46.85 15.37 46.85 15.39 46.86C15.66 46.98 15.92 47.09 16.2 47.2L16.25 47.22C16.3 47.24 16.35 47.26 16.4 47.28L16.6 47.36L16.65 47.38C19.25 48.35 22.06 48.88 25 48.88C28.12 48.88 31.1 48.28 33.83 47.19C33.85 47.18 33.86 47.18 33.88 47.17C34.07 47.09 34.26 47.02 34.44 46.94C34.46 46.93 34.47 46.93 34.49 46.92C36.42 46.09 38.19 45.01 39.81 43.72C39.82 43.71 39.84 43.7 39.85 43.69C40.1 43.5 40.35 43.29 40.59 43.08C40.6 43.07 40.62 43.06 40.63 43.04C41.53 42.26 42.37 41.42 43.15 40.51C41.68 36.72 39.63 32.31 38.1 26.95ZM25 19.83C21.73 19.83 18.69 19.74 16.19 19.58C16.29 19.17 16.39 18.77 16.48 18.38C18.92 17.9 21.85 17.62 25 17.62C27.62 17.62 30.09 17.81 32.25 18.16C32.36 18.63 32.48 19.13 32.6 19.65C30.35 19.76 27.76 19.83 25 19.83Z" fill="#071952"/>
<path d="M29.88 9.79C29.88 9.79 32.074 15.606 34.39 28.45C34.39 28.45 34.525 17.551 29.88 9.79Z" fill="#482670"/>
<path d="M18.97 10.21C18.97 10.21 15.967 18.025 14.4 28.85C14.4 28.85 14.469 16.846 18.97 10.21Z" fill="#482670"/>
<path d="M11.31 33.15C11.31 33.15 10.027 37.398 9.22701 42.655L8.51701 41.967C8.51701 41.967 9.79601 35.771 11.31 33.15Z" fill="#482670"/>
<path d="M11.226 44.291L12.343 45.047C12.343 45.047 13.713 29.683 14.724 26.768C14.724 26.768 13.188 30.258 11.226 44.291Z" fill="#482670"/>
<path d="M18.54 21.36C18.54 21.36 15.792 33.524 14.624 46.277L15.399 46.722C15.399 46.722 16.492 33.955 18.54 21.36Z" fill="#482670"/>
<path d="M16.84 43.83C16.84 43.83 16.474 46.129 16.642 47.164L16.208 46.985C16.208 46.985 16.122 45.086 16.84 43.83Z" fill="#482670"/>
<path d="M30.95 21.38C30.95 21.38 33.385 40.414 33.788 46.722L34.49 46.544C34.49 46.544 33.929 34.731 30.95 21.38Z" fill="#482670"/>
<path d="M37.3 31.72C37.3 31.72 39.325 39.902 39.736 43.311L40.553 42.655C40.553 42.655 39.041 35.293 37.3 31.72Z" fill="#482670"/>
</g>
<defs>
<clipPath id="clip0_1_4">
<rect width="50" height="50" fill="white"/>
</clipPath>
</defs>
</svg>
